X:1
T:Copper Kettle
M:6/8
L:1/8
K:Eb
 EEE F2 F| G B2- B3| EEE F2 E| G6| G/2 G3/2 G G2 F|E/2-D/2 C2- C2 C|\
 F/2F/2 F2- F2 G| F3- FB B| c2c-c c3/2 d/2| c/2B/2 G2- G3| z c3/2 B/2 B2 G|\
 G6| z cc c2 B| G F2- F3| z EE D/2- E3/2 D| C6|
